X: 6637
T: CBC's Glenn And Karl
R: reel
M: 4/4
K: Adorian
|:FA A/A/A B2 AF|ABde f2 ef|abaf e2 fe|dGGA Bdef|
FA A/A/A B2 AF|ABde f2 ef|abaf e2 fe|dBBA BddA:|
|:abag f2 ef|gBBd efge|abag f/g/f ed|cAAB cdeg|
abag f2 ef|gBBd efge|abag efed|dBBA BddA:|

